X:1
T:The Easter Hymn
T:The Easter Hymn
%%score { 1 | 2 }
L:1/8
M:3/8
K:C
V:1 treble nm="Piano" snm="Pno."
V:2 bass 
V:1
 A | A2 B | (A^G)A | B>AB | E2 B/c/ | (dc/B/A/B/) | (c2 B) | A2 A/B/ | c2 d | (ed)c | (dc)B | %11
 A2 A/B/ | c2 d | (ed)c | gcB | c2 A | A2 B | (A^A)A | (B>A)B | E2 (B/c/) | dc/B/A/B/ | (c B2) | %22
 A2 |] %23
V:2
 A,, | C,2 D, | E,2 E, | E,2 B, | E,2 z | G,(A,D,) | E,2- E, | A,,2 z | A,,2 B,, | (C,B,,)A,, | %10
 D,-D,E, | A,A,, z | C,2 G,, | (C,D,)E, | C,G,G,, | C,2 z | (A,,C,)E, | (F,E,)F, | E,2 E, | E,2 z | %20
 G,A,D, | E,- E,2 | A,,2 |] %23

